shader_type spatial;
render_mode unshaded;

uniform sampler2D SCREEN_TEXTURE : hint_screen_texture, filter_linear_mipmap;

void vertex() {
	// Called for every vertex the material is visible on.
}

void fragment() {
	// Called for every pixel the material is visible on.
	//ALBEDO = texture(SCREEN_TEXTURE, SCREEN_UV).rgb;
	ALBEDO = vec3(1.0,0.0,0.0);
	//ALPHA = 1.0;
	DEPTH = 10.0;
}

//void light() {
//	// Called for every pixel for every light affecting the material.
//	// Uncomment to replace the default light processing function with this one.
//}
